wallet_core/revocation_portal/assets/images/logo.svg

<svg width="38" height="27" viewBox="6.25 4 38.4 26.88" fill="none" xmlns="http://www.w3.org/2000/svg">
    <path
        d="M6.25 12.192C6.25 9.32451 6.25 7.89078 6.80804 6.79556C7.29891 5.83217 8.08217 5.04891 9.04556 4.55804C10.1408 4 11.5745 4 14.442 4H36.4579C39.3253 4 40.7591 4 41.8543 4.55804C42.8177 5.04891 43.6009 5.83217 44.0918 6.79556C44.6499 7.89078 44.6499 9.32451 44.6499 12.192V22.6879C44.6499 25.5554 44.6499 26.9891 44.0918 28.0843C43.6009 29.0477 42.8177 29.831 41.8543 30.3219C40.7591 30.8799 39.3253 30.8799 36.4579 30.8799H14.442C11.5745 30.8799 10.1408 30.8799 9.04556 30.3219C8.08217 29.831 7.29891 29.0477 6.80804 28.0843C6.25 26.9891 6.25 25.5554 6.25 22.6879V12.192Z"
        fill="url(#paint0_linear)"/>
    <path
        d="M6.25 12.192C6.25 9.32451 6.25 7.89078 6.80804 6.79556C7.29891 5.83217 8.08217 5.04891 9.04556 4.55804C10.1408 4 11.5745 4 14.442 4H36.4579C39.3253 4 40.7591 4 41.8543 4.55804C42.8177 5.04891 43.6009 5.83217 44.0918 6.79556C44.6499 7.89078 44.6499 9.32451 44.6499 12.192V22.6879C44.6499 25.5554 44.6499 26.9891 44.0918 28.0843C43.6009 29.0477 42.8177 29.831 41.8543 30.3219C40.7591 30.8799 39.3253 30.8799 36.4579 30.8799H14.442C11.5745 30.8799 10.1408 30.8799 9.04556 30.3219C8.08217 29.831 7.29891 29.0477 6.80804 28.0843C6.25 26.9891 6.25 25.5554 6.25 22.6879V12.192Z"
        fill="#383EDE" fill-opacity="0.5"/>
    <path fill-rule="evenodd" clip-rule="evenodd"
          d="M18.6699 4H27.6337L30.1713 10.9721C30.7905 12.6731 31.1 13.5237 30.7639 14.2444C30.4278 14.9652 29.5773 15.2748 27.8763 15.8939L27.1779 16.1481C25.4769 16.7672 24.6264 17.0768 23.9056 16.7407C23.1848 16.4046 22.8753 15.554 22.2561 13.853L18.6699 4ZM26.5668 13.4239C27.2954 13.1587 27.6711 12.3531 27.4059 11.6245C27.1407 10.8959 26.3351 10.5203 25.6065 10.7854C24.8779 11.0506 24.5023 11.8562 24.7675 12.5848C25.0327 13.3134 25.8383 13.689 26.5668 13.4239Z"
          fill="white"/>
    <defs>
        <linearGradient id="paint0_linear" x1="7.42073" y1="4" x2="48.9929" y2="17.155" gradientUnits="userSpaceOnUse">
            <stop stop-color="#576EE8"/>
            <stop offset="1" stop-color="#8060FF"/>
        </linearGradient>
    </defs>
</svg>

<svg xmlns="http://www.w3.org/2000/svg" width="38" height="27" fill="none" viewBox="6.25 4 38.4 26.88"><path fill="url(#a)" d="M6.25 12.192c0-2.867 0-4.301.558-5.396a5.12 5.12 0 0 1 2.238-2.238C10.14 4 11.575 4 14.442 4h22.016c2.867 0 4.301 0 5.396.558a5.12 5.12 0 0 1 2.238 2.238c.558 1.095.558 2.529.558 5.396v10.496c0 2.867 0 4.301-.558 5.396a5.12 5.12 0 0 1-2.238 2.238c-1.095.558-2.529.558-5.396.558H14.442c-2.867 0-4.301 0-5.396-.558a5.12 5.12 0 0 1-2.238-2.238c-.558-1.095-.558-2.529-.558-5.396z"/><path fill="#383ede" fill-opacity=".5" d="M6.25 12.192c0-2.867 0-4.301.558-5.396a5.12 5.12 0 0 1 2.238-2.238C10.14 4 11.575 4 14.442 4h22.016c2.867 0 4.301 0 5.396.558a5.12 5.12 0 0 1 2.238 2.238c.558 1.095.558 2.529.558 5.396v10.496c0 2.867 0 4.301-.558 5.396a5.12 5.12 0 0 1-2.238 2.238c-1.095.558-2.529.558-5.396.558H14.442c-2.867 0-4.301 0-5.396-.558a5.12 5.12 0 0 1-2.238-2.238c-.558-1.095-.558-2.529-.558-5.396z"/><path fill="#fff" fill-rule="evenodd" d="M18.67 4h8.964l2.537 6.972c.62 1.701.929 2.552.593 3.272-.336.721-1.187 1.03-2.888 1.65l-.698.254c-1.701.62-2.552.929-3.272.593-.721-.336-1.03-1.187-1.65-2.888zm7.897 9.424a1.404 1.404 0 1 0-.96-2.639 1.404 1.404 0 0 0 .96 2.639" clip-rule="evenodd"/><defs><linearGradient id="a" x1="7.421" x2="48.993" y1="4" y2="17.155" gradientUnits="userSpaceOnUse"><stop stop-color="#576ee8"/><stop offset="1" stop-color="#8060ff"/></linearGradient></defs></svg>
